icons/lines/box-tick.svg

<svg xmlns="http://www.w3.org/2000/svg" width="24" height="24" viewBox="0 0 24 24" fill="none" stroke="currentColor" stroke-width="2" stroke-linecap="round" stroke-linejoin="round" >
  <path d="M23.0002 17.91C23.0202 18.66 22.8202 19.37 22.4602 19.98C22.2602 20.34 21.9902 20.6701 21.6902 20.9401C21.0002 21.5801 20.0902 21.9701 19.0802 22.0001C17.6202 22.0301 16.3302 21.2801 15.6202 20.1301C15.2402 19.5401 15.0102 18.8301 15.0002 18.0801C14.9702 16.8201 15.5302 15.6801 16.4302 14.9301C17.1102 14.3701 17.9702 14.0201 18.9102 14.0001C21.1202 13.9501 22.9502 15.7 23.0002 17.91Z" stroke-miterlimit="10"/>
  <path d="M17.4404 18.03L18.4504 18.99L20.5404 16.97"/>
  <path d="M3.16992 7.43994L11.9999 12.5499L20.7699 7.46991"/>
  <path d="M12 21.6099V12.5399"/>
  <path d="M21.6101 9.17V14.83C21.6101 14.88 21.6101 14.92 21.6001 14.97C20.9001 14.36 20.0001 14 19.0001 14C18.0601 14 17.1901 14.33 16.5001 14.88C15.5801 15.61 15.0001 16.74 15.0001 18C15.0001 18.75 15.2101 19.46 15.5801 20.06C15.6701 20.22 15.7801 20.37 15.9001 20.51L14.0701 21.52C12.9301 22.16 11.0701 22.16 9.93011 21.52L4.59012 18.56C3.38012 17.89 2.39014 16.21 2.39014 14.83V9.17C2.39014 7.79 3.38012 6.11002 4.59012 5.44002L9.93011 2.48C11.0701 1.84 12.9301 1.84 14.0701 2.48L19.4101 5.44002C20.6201 6.11002 21.6101 7.79 21.6101 9.17Z"/>
  </svg>

<svg xmlns="http://www.w3.org/2000/svg" width="24" height="24" viewBox="0 0 24 24" fill="none" stroke="currentColor" stroke-width="2" stroke-linecap="round" stroke-linejoin="round">
  <path d="M12 21.61v-9.07" />
  <path d="m17.44 18.03 1.01.96 2.09-2.02" />
  <path d="M21.61 14.83a.7.7 0 0 1-.01.14A4 4 0 0 0 15 18a4 4 0 0 0 .58 2.06 3 3 0 0 0 .32.45l-1.83 1.01c-1.14.64-3 .64-4.14 0l-5.34-2.96c-1.21-.67-2.2-2.35-2.2-3.73V9.17c0-1.38.99-3.06 2.2-3.73l5.34-2.96c1.14-.64 3-.64 4.14 0l5.34 2.96c1.21.67 2.2 2.35 2.2 3.73z" />
  <path d="M23 17.91a3.86 3.86 0 0 1-.54 2.07 3.8 3.8 0 0 1-.77.96A4 4 0 0 1 19.08 22a4 4 0 0 1-3.46-1.87 3.9 3.9 0 0 1-.62-2.05 4 4 0 0 1 8-.17" />
  <path d="M3.17 7.44 12 12.55l8.77-5.08" />
</svg>
